icons/clipboard-17.svg

<svg width="16" height="17" viewBox="0 0 16 17" fill="none" xmlns="http://www.w3.org/2000/svg">
<path fill-rule="evenodd" clip-rule="evenodd" d="M6.07146 2.16638C5.71643 2.16638 5.42861 2.4542 5.42861 2.80924V5.38067C5.42861 5.7357 5.71643 6.02352 6.07146 6.02352H9.92861C10.2836 6.02352 10.5715 5.7357 10.5715 5.38067V2.80924C10.5715 2.4542 10.2836 2.16638 9.92861 2.16638H6.07146ZM6.71432 4.73781V3.4521H9.28575V4.73781H6.71432ZM4.2505 4.33752C4.55783 4.15974 4.66284 3.76649 4.48506 3.45917C4.30729 3.15184 3.91403 3.04682 3.60671 3.2246C3.16004 3.48299 2.85718 3.96751 2.85718 4.52353V12.6664C2.85718 13.4948 3.52875 14.1664 4.35718 14.1664H11.6429C12.4713 14.1664 13.1429 13.4948 13.1429 12.6664V4.52353C13.1429 3.96751 12.8401 3.48299 12.3933 3.2246C12.086 3.04682 11.6928 3.15184 11.515 3.45917C11.3372 3.76649 11.4422 4.15974 11.7496 4.33752C11.8153 4.37554 11.8572 4.44503 11.8572 4.52353V12.6664C11.8572 12.7848 11.7613 12.8807 11.6429 12.8807H4.35718C4.23883 12.8807 4.14289 12.7848 4.14289 12.6664V4.52353C4.14289 4.44503 4.18477 4.37554 4.2505 4.33752Z" fill="#272431"/>
</svg>

<svg xmlns="http://www.w3.org/2000/svg" width="16" height="17" viewBox="0 0 16 17"><path fill-rule="evenodd" d="M6.071 2.166a.643.643 0 00-.642.643v2.572c0 .355.287.643.642.643H9.93a.643.643 0 00.643-.643V2.809a.643.643 0 00-.643-.643H6.07zm.643 2.572V3.452h2.572v1.286H6.714zm-2.464-.4a.643.643 0 10-.643-1.113 1.5 1.5 0 00-.75 1.299v8.142a1.5 1.5 0 001.5 1.5h7.286a1.5 1.5 0 001.5-1.5V4.524a1.5 1.5 0 00-.75-1.3.643.643 0 10-.643 1.114.214.214 0 01.107.186v8.142a.214.214 0 01-.214.215H4.357a.214.214 0 01-.214-.215V4.524c0-.079.042-.148.107-.186z"/></svg>
